dist/images/logo-1024.svg

<svg width="166" height="27" viewBox="0 0 166 27" fill="none" xmlns="http://www.w3.org/2000/svg">
<path d="M37.519 21.8133V3.49011H42.3616V10.2959H49.4291V3.49011H54.2717V21.8133H49.4291V14.7458H42.3616V21.8133H37.519Z" fill="white"/>
<path d="M57.1388 4.53715C57.1388 3.90893 57.3743 3.38541 57.8455 2.9666C58.3167 2.53033 58.91 2.31219 59.6255 2.31219C60.341 2.31219 60.9343 2.53033 61.4054 2.9666C61.8766 3.38541 62.1122 3.90893 62.1122 4.53715C62.1122 5.14793 61.8766 5.67145 61.4054 6.10771C60.9343 6.54398 60.341 6.76211 59.6255 6.76211C58.91 6.76211 58.3167 6.54398 57.8455 6.10771C57.3743 5.67145 57.1388 5.14793 57.1388 4.53715ZM57.4005 21.8133V8.20179H61.8504V21.8133H57.4005Z" fill="white"/>
<path d="M65.8363 19.7454C64.6671 18.454 64.0825 16.7875 64.0825 14.7458C64.0825 12.7041 64.6671 11.0375 65.8363 9.74617C67.0055 8.45482 68.4278 7.80915 70.103 7.80915C71.3071 7.80915 72.3454 8.15816 73.218 8.85619C73.6193 9.1703 73.9334 9.51931 74.1603 9.90323H74.4221V8.20179H78.872V26.7867H65.9149V23.253H74.4221V19.7192H74.1603C73.916 20.1031 73.6019 20.4347 73.218 20.7139C72.3629 21.3596 71.3246 21.6824 70.103 21.6824C68.4278 21.6824 67.0055 21.0367 65.8363 19.7454ZM69.4486 12.4423C68.9251 13.0007 68.6633 13.7685 68.6633 14.7458C68.6633 15.723 68.9251 16.4908 69.4486 17.0493C69.9721 17.6077 70.6702 17.8869 71.5427 17.8869C72.4152 17.8869 73.1133 17.6077 73.6368 17.0493C74.1603 16.4908 74.4221 15.723 74.4221 14.7458C74.4221 13.7685 74.1603 13.0007 73.6368 12.4423C73.1133 11.8839 72.4152 11.6047 71.5427 11.6047C70.6702 11.6047 69.9721 11.8839 69.4486 12.4423Z" fill="white"/>
<path d="M81.4773 21.8133V3.49011H85.9272V10.0341H86.189C86.4333 9.61529 86.7474 9.24883 87.1313 8.93472C88.0213 8.18434 89.0596 7.80915 90.2463 7.80915C91.8517 7.80915 93.0994 8.29777 93.9894 9.27501C94.8969 10.2348 95.3506 11.6221 95.3506 13.437V21.8133H90.9007V14.0914C90.9007 13.3061 90.6912 12.6953 90.2724 12.2591C89.8536 11.8228 89.2777 11.6047 88.5448 11.6047C87.7944 11.6047 87.1662 11.8839 86.6601 12.4423C86.1715 12.9833 85.9272 13.7075 85.9272 14.6149V21.8133H81.4773Z" fill="white"/>
<path d="M105.174 26.7867V8.20179H109.624V10.0341H109.885C110.13 9.63274 110.461 9.26628 110.88 8.93472C111.84 8.18434 112.861 7.80915 113.943 7.80915C115.618 7.80915 117.04 8.47228 118.209 9.79853C119.379 11.1073 119.963 12.8437 119.963 15.0075C119.963 17.1714 119.379 18.9165 118.209 20.2427C117.04 21.5515 115.618 22.2059 113.943 22.2059C112.843 22.2059 111.822 21.8395 110.88 21.1065C110.461 20.775 110.13 20.3998 109.885 19.981H109.624V26.7867H105.174ZM110.409 12.4947C109.885 13.088 109.624 13.9256 109.624 15.0075C109.624 16.0895 109.885 16.9271 110.409 17.5204C110.932 18.1138 111.63 18.4104 112.503 18.4104C113.376 18.4104 114.074 18.1138 114.597 17.5204C115.121 16.9271 115.382 16.0895 115.382 15.0075C115.382 13.9256 115.121 13.088 114.597 12.4947C114.074 11.9013 113.376 11.6047 112.503 11.6047C111.63 11.6047 110.932 11.9013 110.409 12.4947Z" fill="white"/>
<path d="M123.275 20.2427C122.106 18.9165 121.521 17.1714 121.521 15.0075C121.521 12.8437 122.106 11.1073 123.275 9.79853C124.444 8.47228 125.867 7.80915 127.542 7.80915C128.624 7.80915 129.645 8.18434 130.604 8.93472C131.006 9.26628 131.337 9.63274 131.599 10.0341H131.861V8.20179H136.311V21.8133H131.861V19.981H131.599C131.355 20.3998 131.023 20.775 130.604 21.1065C129.662 21.8395 128.641 22.2059 127.542 22.2059C125.867 22.2059 124.444 21.5515 123.275 20.2427ZM126.888 12.4947C126.364 13.088 126.102 13.9256 126.102 15.0075C126.102 16.0895 126.364 16.9271 126.888 17.5204C127.411 18.1138 128.109 18.4104 128.982 18.4104C129.854 18.4104 130.552 18.1138 131.076 17.5204C131.599 16.9271 131.861 16.0895 131.861 15.0075C131.861 13.9256 131.599 13.088 131.076 12.4947C130.552 11.9013 129.854 11.6047 128.982 11.6047C128.109 11.6047 127.411 11.9013 126.888 12.4947Z" fill="white"/>
<path d="M138.131 17.3634H142.581C142.651 17.6251 142.799 17.8695 143.026 18.0963C143.497 18.5675 144.178 18.8031 145.068 18.8031C146.289 18.8031 146.9 18.4977 146.9 17.8869C146.9 17.6077 146.725 17.3896 146.376 17.2325C146.027 17.058 145.504 16.8835 144.806 16.709C144.23 16.5694 143.855 16.4821 143.68 16.4472C143.506 16.4123 143.139 16.3163 142.581 16.1593C142.022 15.9848 141.621 15.8365 141.377 15.7143C141.15 15.5747 140.827 15.3827 140.408 15.1384C140.007 14.8767 139.71 14.6149 139.518 14.3531C139.344 14.0739 139.178 13.7336 139.021 13.3323C138.864 12.9135 138.785 12.4685 138.785 11.9973C138.785 10.8456 139.3 9.8596 140.33 9.03942C141.359 8.21924 142.808 7.80915 144.675 7.80915C147.013 7.80915 148.863 8.57698 150.224 10.1126C150.765 10.7758 151.14 11.5349 151.35 12.3899H147.031C146.926 12.1107 146.804 11.8926 146.664 11.7355C146.263 11.2993 145.687 11.0811 144.937 11.0811C143.89 11.0811 143.366 11.3865 143.366 11.9973C143.366 12.294 143.541 12.5208 143.89 12.6779C144.239 12.8349 144.771 12.9833 145.486 13.1229C147.284 13.5417 148.497 13.9082 149.125 14.2223C150.695 14.9901 151.481 16.168 151.481 17.756C151.481 19.0125 150.922 20.0682 149.805 20.9233C148.706 21.7784 147.127 22.2059 145.068 22.2059C142.537 22.2059 140.609 21.4032 139.283 19.7978C138.689 19.0823 138.305 18.2708 138.131 17.3634Z" fill="white"/>
<path d="M152.65 17.3634H157.1C157.17 17.6251 157.318 17.8695 157.545 18.0963C158.016 18.5675 158.697 18.8031 159.587 18.8031C160.809 18.8031 161.419 18.4977 161.419 17.8869C161.419 17.6077 161.245 17.3896 160.896 17.2325C160.547 17.058 160.023 16.8835 159.325 16.709C158.749 16.5694 158.374 16.4821 158.2 16.4472C158.025 16.4123 157.659 16.3163 157.1 16.1593C156.542 15.9848 156.141 15.8365 155.896 15.7143C155.669 15.5747 155.347 15.3827 154.928 15.1384C154.526 14.8767 154.23 14.6149 154.038 14.3531C153.863 14.0739 153.697 13.7336 153.54 13.3323C153.383 12.9135 153.305 12.4685 153.305 11.9973C153.305 10.8456 153.82 9.8596 154.849 9.03942C155.879 8.21924 157.327 7.80915 159.194 7.80915C161.533 7.80915 163.383 8.57698 164.744 10.1126C165.285 10.7758 165.66 11.5349 165.869 12.3899H161.55C161.446 12.1107 161.323 11.8926 161.184 11.7355C160.782 11.2993 160.207 11.0811 159.456 11.0811C158.409 11.0811 157.886 11.3865 157.886 11.9973C157.886 12.294 158.06 12.5208 158.409 12.6779C158.758 12.8349 159.29 12.9833 160.006 13.1229C161.803 13.5417 163.016 13.9082 163.644 14.2223C165.215 14.9901 166 16.168 166 17.756C166 19.0125 165.442 20.0682 164.325 20.9233C163.225 21.7784 161.646 22.2059 159.587 22.2059C157.057 22.2059 155.128 21.4032 153.802 19.7978C153.209 19.0823 152.825 18.2708 152.65 17.3634Z" fill="white"/>
<path fill-rule="evenodd" clip-rule="evenodd" d="M5.2352 5.2352V20.9408H20.9408L5.2352 5.2352ZM0 0V26.176H26.176V0H0Z" fill="#FF6E30"/>
</svg>

<svg width="166" height="27" fill="none" xmlns="http://www.w3.org/2000/svg"><path d="M37.519 21.813V3.49h4.843v6.806h7.067V3.49h4.843v18.323h-4.843v-7.067h-7.067v7.067h-4.843zM57.139 4.537c0-.628.235-1.152.706-1.57.472-.437 1.065-.655 1.78-.655.716 0 1.31.218 1.78.655.472.418.707.942.707 1.57 0 .61-.235 1.134-.707 1.57-.47.437-1.064.655-1.78.655-.715 0-1.308-.218-1.78-.654-.47-.437-.706-.96-.706-1.57zm.261 17.276V8.202h4.45v13.611H57.4zM65.836 19.745c-1.169-1.291-1.754-2.957-1.754-5 0-2.04.585-3.707 1.754-4.999 1.17-1.291 2.592-1.937 4.267-1.937 1.204 0 2.242.35 3.115 1.047.401.314.715.663.942 1.047h.262V8.202h4.45v18.585H65.915v-3.534h8.507v-3.534h-.262a3.642 3.642 0 01-.942.995c-.855.646-1.893.968-3.115.968-1.675 0-3.097-.645-4.267-1.937zm3.613-7.303c-.524.559-.786 1.326-.786 2.304 0 .977.262 1.745.786 2.303.523.559 1.221.838 2.094.838.872 0 1.57-.28 2.094-.838.523-.558.785-1.326.785-2.303 0-.978-.262-1.745-.785-2.304-.524-.558-1.222-.837-2.094-.837-.873 0-1.57.279-2.094.837zM81.477 21.813V3.49h4.45v6.544h.262c.244-.419.558-.785.942-1.1.89-.75 1.929-1.125 3.115-1.125 1.606 0 2.853.489 3.743 1.466.908.96 1.362 2.347 1.362 4.162v8.376H90.9v-7.722c0-.785-.21-1.396-.629-1.832-.418-.436-.994-.654-1.727-.654-.75 0-1.379.279-1.885.837-.489.541-.733 1.265-.733 2.173v7.198h-4.45zM105.174 26.787V8.202h4.45v1.832h.261c.245-.401.576-.768.995-1.1.96-.75 1.981-1.125 3.063-1.125 1.675 0 3.097.663 4.266 1.99 1.17 1.308 1.754 3.045 1.754 5.209 0 2.163-.584 3.909-1.754 5.235-1.169 1.309-2.591 1.963-4.266 1.963-1.1 0-2.121-.366-3.063-1.1a4.03 4.03 0 01-.995-1.125h-.261v6.806h-4.45zm5.235-14.292c-.524.593-.785 1.43-.785 2.513 0 1.082.261 1.92.785 2.512.523.594 1.221.89 2.094.89.873 0 1.571-.296 2.094-.89.524-.593.785-1.43.785-2.512s-.261-1.92-.785-2.513c-.523-.594-1.221-.89-2.094-.89-.873 0-1.571.296-2.094.89zM123.275 20.243c-1.169-1.326-1.754-3.072-1.754-5.235 0-2.164.585-3.9 1.754-5.21 1.169-1.326 2.592-1.989 4.267-1.989 1.082 0 2.103.375 3.062 1.126.402.331.733.698.995 1.1h.262V8.201h4.45v13.611h-4.45v-1.832h-.262a4.015 4.015 0 01-.995 1.125c-.942.733-1.963 1.1-3.062 1.1-1.675 0-3.098-.654-4.267-1.963zm3.613-7.748c-.524.593-.786 1.43-.786 2.513 0 1.082.262 1.92.786 2.512.523.594 1.221.89 2.094.89.872 0 1.57-.296 2.094-.89.523-.593.785-1.43.785-2.512s-.262-1.92-.785-2.513c-.524-.594-1.222-.89-2.094-.89-.873 0-1.571.296-2.094.89zM138.131 17.363h4.45c.07.262.218.506.445.733.471.471 1.152.707 2.042.707 1.221 0 1.832-.305 1.832-.916 0-.28-.175-.497-.524-.654-.349-.175-.872-.35-1.57-.524a37.01 37.01 0 00-1.126-.262c-.174-.035-.541-.13-1.099-.288-.559-.174-.96-.322-1.204-.445-.227-.14-.55-.331-.969-.576-.401-.261-.698-.523-.89-.785-.174-.28-.34-.62-.497-1.02a3.772 3.772 0 01-.236-1.336c0-1.151.515-2.137 1.545-2.958 1.029-.82 2.478-1.23 4.345-1.23 2.338 0 4.188.768 5.549 2.304a5.707 5.707 0 011.126 2.277h-4.319a2.08 2.08 0 00-.367-.655c-.401-.436-.977-.654-1.727-.654-1.047 0-1.571.306-1.571.916 0 .297.175.524.524.68.349.158.881.306 1.596.446 1.798.419 3.011.785 3.639 1.1 1.57.767 2.356 1.945 2.356 3.533 0 1.256-.559 2.312-1.676 3.167-1.099.855-2.678 1.283-4.737 1.283-2.531 0-4.459-.803-5.785-2.408a5.323 5.323 0 01-1.152-2.435zM152.65 17.363h4.45c.07.262.218.506.445.733.471.471 1.152.707 2.042.707 1.222 0 1.832-.305 1.832-.916 0-.28-.174-.497-.523-.654-.349-.175-.873-.35-1.571-.524-.576-.14-.951-.227-1.125-.262-.175-.035-.541-.13-1.1-.288-.558-.174-.959-.322-1.204-.445-.227-.14-.549-.331-.968-.576-.402-.261-.698-.523-.89-.785a6.154 6.154 0 01-.498-1.02 3.771 3.771 0 01-.235-1.336c0-1.151.515-2.137 1.544-2.958 1.03-.82 2.478-1.23 4.345-1.23 2.339 0 4.189.768 5.55 2.304a5.692 5.692 0 011.125 2.277h-4.319a2.08 2.08 0 00-.366-.655c-.402-.436-.977-.654-1.728-.654-1.047 0-1.57.306-1.57.916 0 .297.174.524.523.68.349.158.881.306 1.597.446 1.797.419 3.01.785 3.638 1.1 1.571.767 2.356 1.945 2.356 3.533 0 1.256-.558 2.312-1.675 3.167-1.1.855-2.679 1.283-4.738 1.283-2.53 0-4.459-.803-5.785-2.408a5.343 5.343 0 01-1.152-2.435z" fill="#fff"/><path fill-rule="evenodd" clip-rule="evenodd" d="M5.235 5.235v15.706h15.706L5.235 5.235zM0 0v26.176h26.176V0H0z" fill="#FF6E30"/></svg>
